static/img/olake/ChartBar.svg

<svg width="40" height="40" viewBox="0 0 40 40" fill="none" xmlns="http://www.w3.org/2000/svg">
<path d="M35 30.625H34.375V6.25C34.375 5.75272 34.1775 5.27581 33.8258 4.92417C33.4742 4.57254 32.9973 4.375 32.5 4.375H23.75C23.2527 4.375 22.7758 4.57254 22.4242 4.92417C22.0725 5.27581 21.875 5.75272 21.875 6.25V11.875H15C14.5027 11.875 14.0258 12.0725 13.6742 12.4242C13.3225 12.7758 13.125 13.2527 13.125 13.75V19.375H7.5C7.00272 19.375 6.52581 19.5725 6.17417 19.9242C5.82254 20.2758 5.625 20.7527 5.625 21.25V30.625H5C4.50272 30.625 4.02581 30.8225 3.67417 31.1742C3.32254 31.5258 3.125 32.0027 3.125 32.5C3.125 32.9973 3.32254 33.4742 3.67417 33.8258C4.02581 34.1775 4.50272 34.375 5 34.375H35C35.4973 34.375 35.9742 34.1775 36.3258 33.8258C36.6775 33.4742 36.875 32.9973 36.875 32.5C36.875 32.0027 36.6775 31.5258 36.3258 31.1742C35.9742 30.8225 35.4973 30.625 35 30.625ZM25.625 8.125H30.625V30.625H25.625V8.125ZM16.875 15.625H21.875V30.625H16.875V15.625ZM9.375 23.125H13.125V30.625H9.375V23.125Z" fill="white"/>
</svg>

<svg xmlns="http://www.w3.org/2000/svg" width="40" height="40" fill="none" viewBox="0 0 40 40"><path fill="#fff" d="M35 30.625h-.625V6.25A1.875 1.875 0 0 0 32.5 4.375h-8.75a1.875 1.875 0 0 0-1.875 1.875v5.625H15a1.875 1.875 0 0 0-1.875 1.875v5.625H7.5a1.875 1.875 0 0 0-1.875 1.875v9.375H5a1.875 1.875 0 1 0 0 3.75h30a1.875 1.875 0 1 0 0-3.75m-9.375-22.5h5v22.5h-5zm-8.75 7.5h5v15h-5zm-7.5 7.5h3.75v7.5h-3.75z"/></svg>
